svgs/regular/uniform-martial-arts.svg

<svg xmlns="http://www.w3.org/2000/svg" viewBox="0 0 640 512"><!--! Font Awesome Pro 7.1.0 by @fontawesome - https://fontawesome.com License - https://fontawesome.com/license (Commercial License) Copyright 2025 Fonticons, Inc. --><path fill="currentColor" d="M188.4 48c-26.3 0-50.4 14.3-63.1 37.3L58.9 206C51.7 219 48 233.6 48 248.4L48 392c0 4.4 3.6 8 8 8l32 0c4.4 0 8-3.6 8-8l0-143.6c0-13.6 4.5-27.2 9.7-39 5.4-12.1 12.5-24.4 19.7-35.8 12.1-19.2 26.5-37.4 37.5-57.3 5.3-9.6 16.4-14.4 27-11.7S208 117 208 128l0 160-48 0 0-78.8c-6.7 11.3-16 25.7-16 39.2L144 392c0 30.9-25.1 56-56 56l-32 0c-30.9 0-56-25.1-56-56L0 248.4c0-22.9 5.8-45.5 16.8-65.5L83.2 62.2C104.3 23.8 144.6 0 188.4 0L240 0c9 0 17.2 5 21.3 13L320 127.1 378.7 13C382.8 5 391 0 400 0l51.6 0c43.8 0 84.1 23.8 105.1 62.2l66.4 120.7c11 20.1 16.8 42.6 16.8 65.5L640 392c0 30.9-25.1 56-56 56l-32 0c-30.9 0-56-25.1-56-56l0-143.6c0-13.5-9.3-27.9-16-39.2l0 78.8-48 0 0-160c0-11 7.4-20.5 18-23.2s21.7 2.1 27 11.7c11 19.9 25.4 38.1 37.5 57.3 7.2 11.4 14.4 23.7 19.7 35.8 5.2 11.8 9.7 25.4 9.7 39L544 392c0 4.4 3.6 8 8 8l32 0c4.4 0 8-3.6 8-8l0-143.6c0-14.8-3.7-29.4-10.9-42.4L514.7 85.3C502.1 62.3 477.9 48 451.6 48l-37 0-123.4 240-54 0 55.8-108.4-67.7-131.6-37 0zM160 384l48 0 0 64c0 8.8 7.2 16 16 16l192 0c8.8 0 16-7.2 16-16l0-64 48 0 0 64c0 35.3-28.7 64-64 64l-192 0c-35.3 0-64-28.7-64-64l0-64zm0-64l0 32 130.1 0-47.4 71.1c-4.9 7.4-2.9 17.3 4.4 22.2s17.3 2.9 22.2-4.4l50.7-76 50.7 76c4.9 7.4 14.8 9.3 22.2 4.4s9.3-14.8 4.4-22.2l-47.4-71.1 130.1 0 0-32-320 0z"/></svg>

<svg xmlns="http://www.w3.org/2000/svg" viewBox="0 0 640 512"><!--! Font Awesome Pro 6.6.0 by @fontawesome - https://fontawesome.com License - https://fontawesome.com/license (Commercial License) Copyright 2024 Fonticons, Inc. --><path d="M188.4 48c-26.3 0-50.4 14.3-63.1 37.3L58.9 206C51.7 219 48 233.6 48 248.4V392c0 4.4 3.6 8 8 8H88c4.4 0 8-3.6 8-8V248.4c0-13.6 4.5-27.2 9.7-39c5.4-12.1 12.5-24.4 19.7-35.8c12.1-19.2 26.5-37.4 37.5-57.3c5.3-9.6 16.4-14.4 27-11.7s18 12.3 18 23.2V288H160V209.2c-6.7 11.3-16 25.7-16 39.2V392c0 30.9-25.1 56-56 56H56c-30.9 0-56-25.1-56-56V248.4c0-22.9 5.8-45.5 16.8-65.5L83.2 62.2C104.3 23.8 144.6 0 188.4 0H240c9 0 17.2 5 21.3 13L320 127.1 378.7 13C382.8 5 391 0 400 0h51.6c43.8 0 84.1 23.8 105.1 62.2l66.4 120.7c11 20.1 16.8 42.6 16.8 65.5V392c0 30.9-25.1 56-56 56H552c-30.9 0-56-25.1-56-56V248.4c0-13.5-9.3-27.9-16-39.2V288H432V128c0-11 7.4-20.5 18-23.2s21.7 2.1 27 11.7c11 19.9 25.4 38.1 37.5 57.3c7.2 11.4 14.4 23.7 19.7 35.8c5.2 11.8 9.7 25.4 9.7 39V392c0 4.4 3.6 8 8 8h32c4.4 0 8-3.6 8-8V248.4c0-14.8-3.7-29.4-10.9-42.4L514.7 85.3C502.1 62.3 477.9 48 451.6 48h-37L291.2 288h-54L293 179.6 225.4 48h-37zM160 384h48v64c0 8.8 7.2 16 16 16H416c8.8 0 16-7.2 16-16V384h48v64c0 35.3-28.7 64-64 64H224c-35.3 0-64-28.7-64-64V384zm0-64v32H290.1l-47.4 71.1c-4.9 7.4-2.9 17.3 4.4 22.2s17.3 2.9 22.2-4.4l50.7-76 50.7 76c4.9 7.4 14.8 9.3 22.2 4.4s9.3-14.8 4.4-22.2L349.9 352H480V320H160z"/></svg>
